X:389
T:Reel 389
M:4/4
K:Gmaj
L:1/8
G>B (3BAB cBAG|G>B (3BBB e2d2||Bcde dcBc|dgfg abba:||2Bdef gfge|dcBA G2z2|defg agfg|bgag bgg2|agfg ag (3abc' |d'c'bg a2g2|ac'd'b c'agb|c'bag fga2|c'bac' bd'c'b|abc'a gfg2|
